icons/svgs/star-half-stroke-outline.svg

<svg width="24" height="24" viewBox="0 0 24 24" fill="none" xmlns="http://www.w3.org/2000/svg">
<path d="M13.3203 2.54688L16.0156 8.05469L21.9922 8.95312C22.3438 8.99219 22.6172 9.26562 22.7344 9.57812C22.8516 9.92969 22.7734 10.2812 22.5 10.5547L18.1641 14.8516L19.2188 20.9062C19.2578 21.2578 19.1016 21.6094 18.8281 21.8438C18.5156 22.0391 18.1641 22.0781 17.8516 21.9219L12.5 19.0312L7.14844 21.9219C6.83594 22.0781 6.44531 22.0391 6.13281 21.8438C5.85938 21.6094 5.70312 21.2578 5.78125 20.9062L6.79688 14.8516L2.46094 10.5547C2.1875 10.2812 2.10938 9.92969 2.22656 9.57812C2.34375 9.26562 2.61719 8.99219 2.96875 8.95312L8.94531 8.05469L11.6406 2.54688C11.7969 2.23438 12.1094 2 12.4609 2C12.8516 2 13.1641 2.23438 13.3203 2.54688ZM12.5 17.0391C12.6172 17.0391 12.7734 17.0781 12.9297 17.1562L17.0312 19.3438L16.25 14.6562C16.1719 14.3828 16.2891 14.0703 16.5234 13.8359L19.8438 10.5156L15.2344 9.85156C14.9219 9.8125 14.6875 9.61719 14.5312 9.34375L12.5 5.125V17.0391Z" fill="black"/>
</svg>

<svg xmlns="http://www.w3.org/2000/svg" width="24" height="24" fill="currentColor" class="icon-star-half-stroke-outline" viewBox="0 0 24 24">
  <mask id="a" width="21" height="21" x="2" y="2" maskUnits="userSpaceOnUse" style="mask-type:alpha">
    <path d="m13.32 2.547 2.696 5.508 5.976.898c.352.04.625.313.742.625a.92.92 0 0 1-.234.977l-4.336 4.297 1.055 6.054c.039.352-.117.703-.39.938-.313.195-.665.234-.977.078l-5.352-2.89-5.352 2.89c-.312.156-.703.117-1.015-.078-.274-.235-.43-.586-.352-.938l1.016-6.054-4.336-4.297a.92.92 0 0 1-.234-.977c.117-.312.39-.586.742-.625l5.976-.898 2.696-5.508c.156-.313.468-.547.82-.547a.96.96 0 0 1 .86.547m-.82 14.492c.117 0 .273.04.43.117l4.101 2.188-.781-4.688c-.078-.273.04-.586.273-.82l3.32-3.32-4.609-.664c-.312-.04-.546-.235-.703-.508L12.5 5.125z"/>
  </mask>
  <g mask="url(#a)">
    <path d="M0 0h24v24H0z"/>
  </g>
</svg>
